X:50
T:Forked Deer
C:Traditional - Arr. M. Stangeland
M:4/4
L:1/8
Q:1/8=478
K:D
Bc|:defg agfa|gfeg fedc|defg agfa|gfed cBAc|
defg agfa|1 gfeg fedc|d2[A2F2] GBAG|FEDC D2Bc:|2 gbag fedc|dAFD GBAG|FECE D2[AE][AF]
|:[e2A2][e3/2A3/2]e/ [e2c2]cB|AcBA BAFE|[e2A2][eA]c BABc|dBAG FED2|
[AA][AA][AA][AA] [c2A2][eA][eB]|[ec][eB][eA][AF] E2FE|DEFD EFGA|GFEC D4:|
